icons/thumbsdown-16.svg

<svg width="16" height="16" viewBox="0 0 16 16" xmlns="http://www.w3.org/2000/svg">
  <path fill-rule="evenodd" clip-rule="evenodd" d="M7.08299 15.9862C8.42242 16.1388 9.41677 15.0044 9.41678 13.8032L9.41678 13.3026C9.41678 11.9743 10.0635 11.1796 10.7343 10.6894C11.0625 10.4495 11.3946 10.2859 11.6528 10.1809C11.9559 10.7021 12.5204 11.0525 13.1667 11.0525L14.1667 11.0525C15.1332 11.0525 15.9167 10.269 15.9167 9.30249L15.9167 1.80249C15.9167 0.835992 15.1332 0.0524902 14.1667 0.0524901L13.1667 0.05249C12.392 0.0524899 11.7349 0.555885 11.5046 1.25342C10.9801 1.17854 10.4373 1.02479 9.7794 0.838435L9.7792 0.83838C9.62764 0.79545 9.46997 0.75079 9.305 0.704966C8.15104 0.38442 6.76416 0.0526039 4.91678 0.0526037C3.21101 0.0526036 1.94712 0.204941 1.19522 1.19182C0.842185 1.65518 0.658214 2.23381 0.526427 2.8639C0.4091 3.42487 0.318642 4.1076 0.213998 4.89742L0.213992 4.89746L0.173359 5.20347C-0.0757706 7.07183 -0.0916474 8.52141 0.361968 9.51924C0.605916 10.0559 0.983958 10.4618 1.49848 10.7194C1.99279 10.9668 2.56368 11.0526 3.16678 11.0526L4.58909 11.0526L4.57402 11.1649L4.57401 11.165C4.50433 11.6832 4.41678 12.3344 4.41678 12.8026C4.41678 13.7241 4.56805 14.5212 5.07231 15.102C5.58368 15.691 6.31955 15.8992 7.08299 15.9862ZM11.4167 2.75375C10.7114 2.66528 10.0262 2.46964 9.34465 2.27505L9.34464 2.27505C9.19749 2.23303 9.0505 2.19107 8.90353 2.15024C7.8075 1.84579 6.5694 1.5526 4.91678 1.5526C3.12256 1.5526 2.63646 1.77527 2.38837 2.10088C2.2414 2.29378 2.11287 2.60577 1.99466 3.17099C1.8896 3.6733 1.80711 4.29501 1.70018 5.10092L1.6602 5.40173C1.4093 7.28338 1.47079 8.3338 1.72749 8.89847C1.8387 9.1431 1.98199 9.28398 2.16986 9.37802C2.37793 9.48216 2.6905 9.5526 3.16678 9.5526L4.91715 9.5526C5.6023 9.5526 6.21173 10.1296 6.12232 10.8885C6.09978 11.0799 6.07326 11.2775 6.0469 11.474C5.98135 11.9624 5.91678 12.4436 5.91678 12.8026C5.91678 13.6112 6.06114 13.953 6.20498 14.1186C6.34171 14.2761 6.6064 14.4221 7.25283 14.4958C7.55953 14.5308 7.91677 14.2588 7.91678 13.8032L7.91678 13.3026C7.91678 11.3809 8.89504 10.1756 9.84925 9.47831C10.3193 9.13481 10.7851 8.91143 11.1319 8.7736C11.2379 8.73148 11.3339 8.69692 11.4167 8.66906L11.4167 2.75375ZM13.1667 9.55249C13.0287 9.55249 12.9167 9.44056 12.9167 9.30249L12.9167 2.0526L12.9167 1.80249C12.9167 1.66442 13.0287 1.55249 13.1667 1.55249L14.1667 1.55249C14.3048 1.55249 14.4167 1.66442 14.4167 1.80249L14.4167 9.30249C14.4167 9.44056 14.3048 9.55249 14.1667 9.55249L13.1667 9.55249Z"/>
</svg>

<svg xmlns="http://www.w3.org/2000/svg" width="16" height="16" viewBox="0 0 16 16"><path fill-rule="evenodd" d="M7.083 15.986c1.34.153 2.334-.982 2.334-2.183v-.5c0-1.329.646-2.123 1.317-2.614.329-.24.66-.403.919-.508a1.75 1.75 0 001.514.872h1a1.75 1.75 0 001.75-1.75v-7.5a1.75 1.75 0 00-1.75-1.75h-1a1.75 1.75 0 00-1.662 1.2c-.525-.074-1.068-.228-1.726-.415L9.305.705C8.151.385 6.765.053 4.917.053c-1.706 0-2.97.152-3.722 1.139-.353.463-.537 1.042-.669 1.672C.41 3.424.32 4.108.214 4.897l-.04.306c-.25 1.869-.266 3.318.188 4.316.244.537.622.943 1.136 1.2.495.248 1.066.334 1.669.334h1.422l-.015.112c-.07.518-.157 1.17-.157 1.638 0 .921.151 1.718.655 2.299.512.589 1.248.797 2.011.884zm4.334-13.232c-.706-.089-1.39-.284-2.072-.479a63.914 63.914 0 00-.441-.125c-1.096-.304-2.335-.597-3.987-.597-1.794 0-2.28.222-2.529.548-.147.193-.275.505-.393 1.07-.105.502-.188 1.124-.295 1.93l-.04.3c-.25 1.882-.19 2.933.067 3.497a.921.921 0 00.443.48c.208.104.52.175.997.175h1.75c.685 0 1.295.577 1.205 1.335-.022.192-.049.39-.075.586-.066.488-.13.97-.13 1.329 0 .808.144 1.15.288 1.316.137.157.401.303 1.048.377.307.035.664-.237.664-.693v-.5c0-1.922.978-3.127 1.932-3.825a5.862 5.862 0 011.568-.809V2.754zm1.75 6.798a.25.25 0 01-.25-.25v-7.5a.25.25 0 01.25-.25h1a.25.25 0 01.25.25v7.5a.25.25 0 01-.25.25h-1z"/></svg>
